src/asset/img/unsorted/sprites/DefineSprite_474/1.svg

<svg xmlns:xlink="http://www.w3.org/1999/xlink" height="39.25" width="46.9" xmlns="http://www.w3.org/2000/svg"><g transform="translate(24.5 22.5)"><use height="39.1" transform="translate(-24.5 -22.35)" width="46.9" xlink:href="#a"/><use height="50" transform="matrix(.2741 -.1582 .2127 .3683 -8.518 -14.602)" width="50" xlink:href="#b"/><use height="50" transform="matrix(.219 -.1264 .1699 .2943 -6.073 -13.547)" width="50" xlink:href="#b"/><use height="50" transform="matrix(.1358 -.0784 .1054 .1825 -1.578 -12.102)" width="50" xlink:href="#b"/></g><defs><linearGradient gradientTransform="matrix(.013 -.0075 .008 .0139 -6.1 -.45)" gradientUnits="userSpaceOnUse" id="d" spreadMethod="pad" x1="-819.2" x2="819.2"><stop offset="0" stop-color="#79df86"/><stop offset="1" stop-color="#e4faee"/></linearGradient><path d="M251.95 33.8q-2.45 2.4-5.85 2.4-3.4 0-5.8-2.4t-2.4-5.8q0-3.4 2.4-5.85 2.4-2.4 5.8-2.35 3.4-.05 5.85 2.35 2.4 2.45 2.4 5.85 0 3.4-2.4 5.8" fill="#fff" fill-opacity=".196" fill-rule="evenodd" transform="translate(-237.9 -19.8)" id="c"/><use height="16.4" transform="matrix(3.0395 0 0 3.0488 .002 .016)" width="16.45" xlink:href="#c" id="b"/><g id="a"><path d="M3.2-18Q12.85-7.85 19.3 5.1q.85 1.75.5 3.65t-1.8 3.2q-1.45 1.35-3.35 1.55-15.7 1.55-31.4 0-1.95-.2-3.4-1.55-1.45-1.4-1.75-3.3-.35-2 .6-3.75 6.7-12.45 15.9-22.75 1.1-1.25 2.7-1.7l3.15-.1q1.6.45 2.75 1.65" fill="#fff" fill-rule="evenodd" transform="translate(24.5 22.35)"/><path d="M27.7 4.35q9.65 10.15 16.1 23.1.85 1.75.5 3.65t-1.8 3.2q-1.45 1.35-3.35 1.55-15.7 1.55-31.4 0-1.95-.2-3.4-1.55Q2.9 32.9 2.6 31q-.35-2 .6-3.75Q9.9 14.8 19.1 4.5q1.1-1.25 2.7-1.7l3.15-.1q1.6.45 2.75 1.65Z" fill="none" stroke="#fff" stroke-linecap="round" stroke-linejoin="round" stroke-width="5"/><path d="M19.8 8.75q-.35 1.9-1.8 3.2-1.45 1.35-3.35 1.55-15.7 1.55-31.4 0-1.95-.2-3.4-1.55-1.45-1.4-1.75-3.3-.35-2 .6-3.75 6.7-12.45 15.9-22.75 1.1-1.25 2.7-1.7l3.15-.1q1.6.45 2.75 1.65Q12.85-7.85 19.3 5.1q.85 1.75.5 3.65" fill="#090" fill-rule="evenodd" transform="translate(24.5 22.35)"/><path d="M.35-15.35Q9.65-5.6 15.8 6.85V6.8q.25.6.15 1.25L15.4 9.1q-.5.45-1.15.5-15.3 1.55-30.6 0-.65-.05-1.15-.5-.5-.45-.6-1.1-.1-.65.25-1.25 6.5-12.05 15.35-22 .35-.45.9-.6l1.05-.05.9.55" fill="#fff" fill-rule="evenodd" transform="translate(24.5 22.35)"/><path d="M.35-15.35Q9.65-5.6 15.8 6.85V6.8q.25.6.15 1.25L15.4 9.1q-.5.45-1.15.5-15.3 1.55-30.6 0-.65-.05-1.15-.5-.5-.45-.6-1.1-.1-.65.25-1.25 6.5-12.05 15.35-22 .35-.45.9-.6l1.05-.05.9.55Z" fill="none" stroke="#fff" stroke-linecap="round" stroke-linejoin="round" transform="translate(24.5 22.35)"/><path d="M14.15 8.45q-15.2 1.55-30.4 0l-.45-.2-.05-.05-.2-.35V7.8l.05-.4.05-.05Q-10.4-4.6-1.6-14.5l.05-.1.3-.15h.45-.05l.35.2h.05q9.1 9.6 15.2 21.85v.05l.1.5-.25.4-.45.2" fill="url(#d)" fill-rule="evenodd" transform="translate(24.5 22.35)"/><path d="m16.7 16.6 6.65 9.4 10.6-16.2" fill="none" stroke="#6c0" stroke-linecap="round" stroke-linejoin="round" stroke-width="7"/></g></defs></svg>

<?xml version="1.0" encoding="UTF-8" standalone="no"?>
<svg xmlns:xlink="http://www.w3.org/1999/xlink" height="39.25px" width="46.9px" xmlns="http://www.w3.org/2000/svg">
  <g transform="matrix(1.0, 0.0, 0.0, 1.0, 24.5, 22.5)">
    <use height="39.1" transform="matrix(1.0, 0.0, 0.0, 1.0, -24.5, -22.35)" width="46.9" xlink:href="#shape0"/>
    <use height="50.0" transform="matrix(0.2741, -0.1582, 0.2127, 0.3683, -8.5185, -14.6025)" width="50.0" xlink:href="#sprite0"/>
    <use height="50.0" transform="matrix(0.219, -0.1264, 0.1699, 0.2943, -6.0733, -13.5469)" width="50.0" xlink:href="#sprite0"/>
    <use height="50.0" transform="matrix(0.1358, -0.0784, 0.1054, 0.1825, -1.5784, -12.102)" width="50.0" xlink:href="#sprite0"/>
  </g>
  <defs>
    <g id="shape0" transform="matrix(1.0, 0.0, 0.0, 1.0, 24.5, 22.35)">
      <path d="M3.2 -18.0 Q12.85 -7.85 19.3 5.1 20.15 6.85 19.8 8.75 19.45 10.65 18.0 11.95 16.55 13.3 14.65 13.5 -1.05 15.05 -16.75 13.5 -18.7 13.3 -20.15 11.95 -21.6 10.55 -21.9 8.65 -22.25 6.65 -21.3 4.9 -14.6 -7.55 -5.4 -17.85 -4.3 -19.1 -2.7 -19.55 L0.45 -19.65 Q2.05 -19.2 3.2 -18.0" fill="#ffffff" fill-rule="evenodd" stroke="none"/>
      <path d="M3.2 -18.0 Q12.85 -7.85 19.3 5.1 20.15 6.85 19.8 8.75 19.45 10.65 18.0 11.95 16.55 13.3 14.65 13.5 -1.05 15.05 -16.75 13.5 -18.7 13.3 -20.15 11.95 -21.6 10.55 -21.9 8.65 -22.25 6.65 -21.3 4.9 -14.6 -7.55 -5.4 -17.85 -4.3 -19.1 -2.7 -19.55 L0.45 -19.65 Q2.05 -19.2 3.2 -18.0 Z" fill="none" stroke="#ffffff" stroke-linecap="round" stroke-linejoin="round" stroke-width="5.0"/>
      <path d="M19.8 8.75 Q19.45 10.65 18.0 11.95 16.55 13.3 14.65 13.5 -1.05 15.05 -16.75 13.5 -18.7 13.3 -20.15 11.95 -21.6 10.55 -21.9 8.65 -22.25 6.65 -21.3 4.9 -14.6 -7.55 -5.4 -17.85 -4.3 -19.1 -2.7 -19.55 L0.45 -19.65 Q2.05 -19.2 3.2 -18.0 12.85 -7.85 19.3 5.1 20.15 6.85 19.8 8.75" fill="#009900" fill-rule="evenodd" stroke="none"/>
      <path d="M0.35 -15.35 Q9.65 -5.6 15.8 6.85 L15.8 6.8 Q16.05 7.4 15.95 8.05 L15.4 9.1 Q14.9 9.55 14.25 9.6 -1.05 11.15 -16.35 9.6 -17.0 9.55 -17.5 9.1 -18.0 8.65 -18.1 8.0 -18.2 7.35 -17.85 6.75 -11.35 -5.3 -2.5 -15.25 -2.15 -15.7 -1.6 -15.85 L-0.55 -15.9 0.35 -15.35" fill="#ffffff" fill-rule="evenodd" stroke="none"/>
      <path d="M0.35 -15.35 Q9.65 -5.6 15.8 6.85 L15.8 6.8 Q16.05 7.4 15.95 8.05 L15.4 9.1 Q14.9 9.55 14.25 9.6 -1.05 11.15 -16.35 9.6 -17.0 9.55 -17.5 9.1 -18.0 8.65 -18.1 8.0 -18.2 7.35 -17.85 6.75 -11.35 -5.3 -2.5 -15.25 -2.15 -15.7 -1.6 -15.85 L-0.55 -15.9 0.35 -15.35 Z" fill="none" stroke="#ffffff" stroke-linecap="round" stroke-linejoin="round" stroke-width="1.0"/>
      <path d="M14.15 8.45 Q-1.05 10.0 -16.25 8.45 L-16.7 8.25 -16.75 8.2 -16.95 7.85 -16.95 7.8 -16.9 7.4 -16.85 7.35 Q-10.4 -4.6 -1.6 -14.5 L-1.55 -14.6 -1.25 -14.75 -0.8 -14.75 -0.85 -14.75 -0.5 -14.55 -0.45 -14.55 Q8.65 -4.95 14.75 7.3 L14.75 7.35 14.85 7.85 14.6 8.25 14.15 8.45" fill="url(#gradient0)" fill-rule="evenodd" stroke="none"/>
      <path d="M-7.8 -5.75 L-1.15 3.65 9.45 -12.55" fill="none" stroke="#66cc00" stroke-linecap="round" stroke-linejoin="round" stroke-width="7.0"/>
    </g>
    <linearGradient gradientTransform="matrix(0.013, -0.0075, 0.008, 0.0139, -6.1, -0.45)" gradientUnits="userSpaceOnUse" id="gradient0" spreadMethod="pad" x1="-819.2" x2="819.2">
      <stop offset="0.0" stop-color="#79df86"/>
      <stop offset="1.0" stop-color="#e4faee"/>
    </linearGradient>
    <g id="sprite0" transform="matrix(1.0, 0.0, 0.0, 1.0, 25.0, 25.0)">
      <use height="16.4" transform="matrix(3.0395, 0.0, 0.0, 3.0488, -24.9981, -24.9841)" width="16.45" xlink:href="#shape1"/>
    </g>
    <g id="shape1" transform="matrix(1.0, 0.0, 0.0, 1.0, -237.9, -19.8)">
      <path d="M251.95 33.8 Q249.5 36.2 246.1 36.2 242.7 36.2 240.3 33.8 237.9 31.4 237.9 28.0 237.9 24.6 240.3 22.15 242.7 19.75 246.1 19.8 249.5 19.75 251.95 22.15 254.35 24.6 254.35 28.0 254.35 31.4 251.95 33.8" fill="#ffffff" fill-opacity="0.19607843" fill-rule="evenodd" stroke="none"/>
    </g>
  </defs>
</svg>
